X:131
T: Anglais #131
T: efter Boström
M:2/4
L:1/16
Q:110
K: A
(e2 | c'4) a2e2 | c2e2 a2c'2 | b2d'2 b2g2 | e2fg a2 :: cd| e2ee ecAc | d2dd dBGB |
e2aa agaf | ecdB A2:|

